images_elementary_svg/chart2/res/columnstackline_52x60.svg

<svg height="52" viewBox="0 0 60 52" width="60" xmlns="http://www.w3.org/2000/svg" xmlns:xlink="http://www.w3.org/1999/xlink"><linearGradient id="a" gradientTransform="matrix(1.3832 0 0 1.4144 -11.892 21.511)" gradientUnits="userSpaceOnUse" x1="13.697" x2="13.3" y1="12.091" y2="29.436001"><stop offset="0" stop-color="#aff05f"/><stop offset="1" stop-color="#68b723"/></linearGradient><linearGradient id="b"><stop offset="0" stop-color="#fff"/><stop offset=".58055538" stop-color="#fff" stop-opacity=".23529"/><stop offset="1" stop-color="#fff" stop-opacity=".15686"/><stop offset="1" stop-color="#fff" stop-opacity=".39216"/></linearGradient><linearGradient id="c" gradientUnits="userSpaceOnUse" x1="42.5" x2="42.5" y1="49.5" y2="7"><stop offset="0" stop-color="#f6f6f6"/><stop offset=".35294119" stop-color="#fcfcfc"/><stop offset="1" stop-color="#fff" stop-opacity=".915441"/></linearGradient><linearGradient id="d" gradientUnits="userSpaceOnUse" x1="48.5" x2="48.5" y1="-19" y2="-6.5"><stop offset="0" stop-color="#cd9ef7"/><stop offset="1" stop-color="#a56de2"/></linearGradient><linearGradient id="e" gradientTransform="translate(30.464844 -43.652344)" gradientUnits="userSpaceOnUse" x1="25.535156" x2="25.535156" xlink:href="#a" y1="31.652344" y2="49.152344"/><linearGradient id="f" gradientUnits="userSpaceOnUse" x1="-23.5" x2="-23.5" xlink:href="#b" y1="31" y2="41"/><linearGradient id="g" gradientUnits="userSpaceOnUse" x1="46" x2="46" xlink:href="#b" y1="-9.5" y2="3"/><linearGradient id="h" gradientUnits="userSpaceOnUse" x1="-23.5" x2="-23.5" xlink:href="#b" y1="32.5" y2="41"/><linearGradient id="i" gradientTransform="translate(30.464844 -43.652344)" gradientUnits="userSpaceOnUse" x1="18.53516" x2="18.53516" xlink:href="#a" y1="34.152344" y2="46.652344"/><linearGradient id="j" gradientUnits="userSpaceOnUse" x1="46.500004" x2="46.500004" xlink:href="#b" y1="-7" y2="-2"/><path d="m3 3h57v49h-57z" fill="#010101" opacity=".02"/><path d="m3 3h56.5v48.5h-56.5z" fill="#010101" opacity=".05"/><path d="m3 3h56v48h-56z" fill="#010101" opacity=".2"/><g stroke-linecap="round" stroke-linejoin="round"><path d="m.5.5h57v49h-57z" fill="url(#c)" stroke="#939393" stroke-width=".999"/><path d="m6.5 12.5v31" fill="none" stroke="#939393"/><path d="m6.5 43.5h38.5" fill="none" stroke="#939393"/><path d="m1.5 1.5h55v47h-55z" fill="none" stroke="#fff" stroke-width=".999"/><g stroke-opacity=".746324" transform="translate(1.5 51)"><path d="m41.964844-9.53516.035156-10.96484-11.964844.03516-.035156 10.96484z" fill="url(#d)" stroke="#7239b3"/><path d="m-24.964844 32.53516-.035156 8.96484h10l-.000004-9z" fill="none" stroke="url(#f)" transform="translate(56 -52)"/></g><g stroke-opacity=".745098" transform="translate(-8.5 26.5)"><path d="m52 4-11.964844-.035156v-12.796875l11.964844-.167969z" fill="url(#e)" stroke="#7bb339"/><path d="m41.070312-8.070312-.070312 11.070312 9.964844.03516.07032-11.070312z" fill="none" stroke="url(#g)"/></g><g stroke-opacity=".746324" transform="translate(-16.5 51)"><path d="m41.964844-9.53516.035156-9.96484-11.964844.03516-.035156 9.96484z" fill="url(#d)" stroke="#7239b3"/><path d="m-24.964844 33.53516-.035156 7.96484h10l-.000004-8z" fill="none" stroke="url(#h)" transform="translate(56 -52)"/></g><g stroke-opacity=".745098" transform="translate(-26.500004 31.5)"><path d="m52.000004 0-11.964844-.035156-.035152-6.964844h12z" fill="url(#i)" stroke="#7bb339"/><path d="m41.000008-6-.000004 5h10l.000004-5z" fill="none" stroke="url(#j)"/></g><path d="m18.5 19.5 19-8.5" fill="none" stroke="#939393"/></g></svg>

<?xml version="1.0" encoding="UTF-8" standalone="no"?>
<svg
   xmlns:dc="http://purl.org/dc/elements/1.1/"
   xmlns:cc="http://creativecommons.org/ns#"
   xmlns:rdf="http://www.w3.org/1999/02/22-rdf-syntax-ns#"
   xmlns:svg="http://www.w3.org/2000/svg"
   xmlns="http://www.w3.org/2000/svg"
   xmlns:xlink="http://www.w3.org/1999/xlink"
   xmlns:sodipodi="http://sodipodi.sourceforge.net/DTD/sodipodi-0.dtd"
   xmlns:inkscape="http://www.inkscape.org/namespaces/inkscape"
   height="52"
   viewBox="0 0 60 52"
   width="60"
   version="1.1"
   id="svg71"
   sodipodi:docname="columnstackline_52x60.svg"
   inkscape:version="0.92.3 (unknown)"
   inkscape:export-filename="/home/rizmut/Dokumen/Rizmut/Github/libreoffice-style-elementary/images_elementary/chart2/res/columnstackline_52x60.png"
   inkscape:export-xdpi="96"
   inkscape:export-ydpi="96">
  <metadata
     id="metadata77">
    <rdf:RDF>
      <cc:Work
         rdf:about="">
        <dc:format>image/svg+xml</dc:format>
        <dc:type
           rdf:resource="http://purl.org/dc/dcmitype/StillImage" />
        <dc:title></dc:title>
      </cc:Work>
    </rdf:RDF>
  </metadata>
  <defs
     id="defs75">
    <linearGradient
       inkscape:collect="always"
       id="linearGradient1205">
      <stop
         style="stop-color:#f6f6f6;stop-opacity:1;"
         offset="0"
         id="stop1201" />
      <stop
         id="stop2419"
         offset="0.35294119"
         style="stop-color:#fcfcfc;stop-opacity:1" />
      <stop
         style="stop-color:#ffffff;stop-opacity:0.91544116"
         offset="1"
         id="stop1203" />
    </linearGradient>
    <linearGradient
       id="h"
       gradientTransform="matrix(1.3832,0,0,1.4144,-11.892,21.511)"
       gradientUnits="userSpaceOnUse"
       x1="13.697"
       x2="13.3"
       y1="12.091"
       y2="29.436001">
      <stop
         offset="0"
         stop-color="#aff05f"
         id="stop31" />
      <stop
         offset="1"
         stop-color="#68b723"
         id="stop33" />
    </linearGradient>
    <linearGradient
       id="i"
       gradientUnits="userSpaceOnUse"
       x1="12.00126"
       x2="12.00126"
       xlink:href="#a-2"
       y1="8.1875687"
       y2="19.999826" />
    <linearGradient
       id="a-2">
      <stop
         offset="0"
         stop-color="#fff"
         id="stop2-9" />
      <stop
         offset="0.58055538"
         stop-color="#fff"
         stop-opacity=".23529"
         id="stop4-1" />
      <stop
         offset="1"
         stop-color="#fff"
         stop-opacity=".15686"
         id="stop6" />
      <stop
         offset="1"
         stop-color="#fff"
         stop-opacity=".39216"
         id="stop8" />
    </linearGradient>
    <linearGradient
       id="f-2"
       gradientUnits="userSpaceOnUse"
       x1="13.608"
       x2="13.608"
       y1="2.5455"
       y2="21.532">
      <stop
         offset="0"
         stop-color="#f7b19e"
         id="stop25" />
      <stop
         offset="1"
         stop-color="#e2866d"
         id="stop27" />
    </linearGradient>
    <linearGradient
       id="g-7"
       gradientUnits="userSpaceOnUse"
       x1="11.876287"
       x2="12.00126"
       xlink:href="#a-2"
       y1="7.3122978"
       y2="19.999826" />
    <linearGradient
       id="j"
       gradientUnits="userSpaceOnUse"
       x1="15.608"
       x2="15.608"
       y1="2.5455"
       y2="21.532">
      <stop
         offset="0"
         stop-color="#cd9ef7"
         id="stop37" />
      <stop
         offset="1"
         stop-color="#a56de2"
         id="stop39" />
    </linearGradient>
    <linearGradient
       id="k"
       gradientUnits="userSpaceOnUse"
       x1="14.00124"
       x2="14.00124"
       xlink:href="#a-2"
       y1="4.0000048"
       y2="19.999826" />
    <linearGradient
       inkscape:collect="always"
       xlink:href="#linearGradient1205"
       id="linearGradient1207"
       x1="42.5"
       y1="49.5"
       x2="42.5"
       y2="7"
       gradientUnits="userSpaceOnUse" />
    <linearGradient
       id="a-3"
       gradientUnits="userSpaceOnUse"
       x1="9.9784946"
       x2="9.9784946"
       y1="13.912886"
       y2="-5.8720589"
       gradientTransform="translate(-85.554475,-30.546764)">
      <stop
         offset="0"
         id="stop1717" />
      <stop
         offset="1"
         stop-color="#333"
         id="stop1719" />
    </linearGradient>
    <linearGradient
       id="b-6"
       gradientUnits="userSpaceOnUse"
       x1="14"
       x2="6"
       y1="8"
       y2="16">
      <stop
         offset="0"
         stop-color="#fff"
         id="stop1722" />
      <stop
         offset=".125"
         stop-color="#fff"
         stop-opacity="0"
         id="stop1724" />
      <stop
         offset="1"
         stop-color="#fff"
         stop-opacity="0"
         id="stop1726" />
    </linearGradient>
    <clipPath
       id="c-0">
      <path
         inkscape:connector-curvature="0"
         d="M 8,2.6855469 V 16.685547 l 3.132812,-3.820313 2.066407,4.986328 a 1.0001,1.0001 0 1 0 1.847656,-0.765624 L 12.935547,11.990234 17.314453,12 Z"
         id="path1729" />
    </clipPath>
    <linearGradient
       inkscape:collect="always"
       xlink:href="#j"
       id="linearGradient932"
       gradientUnits="userSpaceOnUse"
       x1="-7.5"
       y1="33"
       x2="-7.5"
       y2="45.5"
       gradientTransform="translate(56,-52)" />
    <linearGradient
       inkscape:collect="always"
       xlink:href="#h"
       id="linearGradient940"
       gradientUnits="userSpaceOnUse"
       x1="25.535156"
       y1="31.652344"
       x2="25.535156"
       y2="49.152344"
       gradientTransform="translate(30.464844,-43.652344)" />
    <linearGradient
       inkscape:collect="always"
       xlink:href="#a-2"
       id="linearGradient948"
       gradientUnits="userSpaceOnUse"
       x1="-23.5"
       y1="31"
       x2="-23.5"
       y2="41" />
    <linearGradient
       inkscape:collect="always"
       xlink:href="#a-2"
       id="linearGradient952"
       gradientUnits="userSpaceOnUse"
       x1="15.535156"
       y1="34.152344"
       x2="15.535156"
       y2="46.652344"
       gradientTransform="translate(30.464844,-43.652344)" />
    <linearGradient
       inkscape:collect="always"
       xlink:href="#j"
       id="linearGradient969"
       gradientUnits="userSpaceOnUse"
       gradientTransform="translate(56,-52)"
       x1="-7.5"
       y1="33"
       x2="-7.5"
       y2="45.5" />
    <linearGradient
       inkscape:collect="always"
       xlink:href="#a-2"
       id="linearGradient973"
       gradientUnits="userSpaceOnUse"
       x1="-23.5"
       y1="32.5"
       x2="-23.5"
       y2="41" />
    <linearGradient
       inkscape:collect="always"
       xlink:href="#h"
       id="linearGradient985"
       gradientUnits="userSpaceOnUse"
       gradientTransform="translate(30.464844,-43.652344)"
       x1="18.53516"
       y1="34.152344"
       x2="18.53516"
       y2="46.652344" />
    <linearGradient
       inkscape:collect="always"
       xlink:href="#a-2"
       id="linearGradient991"
       gradientUnits="userSpaceOnUse"
       gradientTransform="translate(30.464844,-43.652344)"
       x1="16.03516"
       y1="36.652344"
       x2="16.03516"
       y2="41.652344" />
  </defs>
  <sodipodi:namedview
     pagecolor="#ffffff"
     bordercolor="#666666"
     borderopacity="1"
     objecttolerance="10"
     gridtolerance="10"
     guidetolerance="10"
     inkscape:pageopacity="0"
     inkscape:pageshadow="2"
     inkscape:window-width="1366"
     inkscape:window-height="706"
     id="namedview73"
     showgrid="true"
     inkscape:zoom="4.0000002"
     inkscape:cx="63.209609"
     inkscape:cy="12.118385"
     inkscape:window-x="0"
     inkscape:window-y="0"
     inkscape:window-maximized="1"
     inkscape:current-layer="svg71">
    <inkscape:grid
       type="xygrid"
       id="grid895"
       spacingx="0.5"
       spacingy="0.5" />
  </sodipodi:namedview>
  <linearGradient
     id="a"
     gradientUnits="userSpaceOnUse"
     x1="29.525455894189"
     x2="29.525455894189"
     y1="35.604006871864"
     y2="16.823929761292"
     gradientTransform="translate(-60)">
    <stop
       offset="0"
       stop-color="#fbaeff"
       id="stop2" />
    <stop
       offset="1"
       stop-color="#ffd7d7"
       id="stop4" />
  </linearGradient>
  <linearGradient
     id="b"
     gradientUnits="userSpaceOnUse"
     x1="30.27586192"
     x2="30.27586192"
     y1="43.34487536"
     y2="30.9310824"
     gradientTransform="translate(-60)">
    <stop
       offset="0"
       stop-color="#99c2fc"
       id="stop7" />
    <stop
       offset="1"
       stop-color="#dceafe"
       id="stop9" />
  </linearGradient>
  <linearGradient
     id="c"
     gradientUnits="userSpaceOnUse"
     x1="36.4827584"
     x2="46.56896518"
     xlink:href="#d"
     y1="23.1724618"
     y2="40.64228401192"
     gradientTransform="translate(-60)" />
  <linearGradient
     id="d">
    <stop
       offset="0"
       stop-color="#fff"
       id="stop13" />
    <stop
       offset="1"
       stop-color="#fff"
       stop-opacity="0"
       id="stop15" />
  </linearGradient>
  <linearGradient
     id="e"
     gradientUnits="userSpaceOnUse"
     x1="39.859630516151"
     x2="50.44827548"
     xlink:href="#d"
     y1="3.311739960536"
     y2="29.37935828"
     gradientTransform="translate(-60)" />
  <linearGradient
     id="f"
     gradientUnits="userSpaceOnUse"
     x1="16.31034484"
     x2="24.864886637699"
     y1="34.21645904307"
     y2="2.290471955096"
     gradientTransform="translate(-60)">
    <stop
       offset="0"
       stop-color="#b900c4"
       id="stop19" />
    <stop
       offset="1"
       stop-color="#ae4300"
       id="stop21" />
  </linearGradient>
  <linearGradient
     id="g"
     gradientUnits="userSpaceOnUse"
     x1="13.012931085"
     x2="58.283811165318"
     y1="24.72418592"
     y2="12.593890241207"
     gradientTransform="translate(-60)">
    <stop
       offset="0"
       stop-color="#0968ef"
       id="stop24" />
    <stop
       offset="1"
       stop-color="#aecffc"
       id="stop26" />
  </linearGradient>
  <rect
     y="3"
     x="3"
     height="49"
     width="57"
     id="rect2411"
     style="opacity:0.02;vector-effect:none;fill:#010101;fill-opacity:1;stroke:none;stroke-width:0.99900001;stroke-linecap:round;stroke-linejoin:round;stroke-miterlimit:4;stroke-dasharray:none;stroke-dashoffset:0;stroke-opacity:1" />
  <rect
     style="opacity:0.05;vector-effect:none;fill:#010101;fill-opacity:1;stroke:none;stroke-width:0.98952127;stroke-linecap:round;stroke-linejoin:round;stroke-miterlimit:4;stroke-dasharray:none;stroke-dashoffset:0;stroke-opacity:1"
     id="rect2417"
     width="56.5"
     height="48.5"
     x="3"
     y="3" />
  <rect
     style="opacity:0.2;vector-effect:none;fill:#010101;fill-opacity:1;stroke:none;stroke-width:0.98004192;stroke-linecap:round;stroke-linejoin:round;stroke-miterlimit:4;stroke-dasharray:none;stroke-dashoffset:0;stroke-opacity:1"
     id="rect2415"
     width="56"
     height="48"
     x="3"
     y="3" />
  <rect
     style="opacity:1;vector-effect:none;fill:url(#linearGradient1207);fill-opacity:1;stroke:#939393;stroke-width:0.99900001;stroke-linecap:round;stroke-linejoin:round;stroke-miterlimit:4;stroke-dasharray:none;stroke-dashoffset:0;stroke-opacity:1"
     id="rect1199"
     width="57"
     height="49"
     x="0.5"
     y="0.5" />
  <path
     style="fill:none;stroke:#939393;stroke-width:1px;stroke-linecap:round;stroke-linejoin:round;stroke-opacity:1"
     d="m 6.5,12.5 v 31"
     id="path897"
     inkscape:connector-curvature="0"
     sodipodi:nodetypes="cc" />
  <path
     style="fill:none;stroke:#939393;stroke-width:1px;stroke-linecap:round;stroke-linejoin:round;stroke-opacity:1"
     d="M 6.5,43.5 H 45"
     id="path901"
     inkscape:connector-curvature="0" />
  <rect
     y="1.5"
     x="1.5"
     height="47"
     width="55"
     id="rect1209"
     style="opacity:1;vector-effect:none;fill:none;fill-opacity:1;stroke:#ffffff;stroke-width:0.99900001;stroke-linecap:round;stroke-linejoin:round;stroke-miterlimit:4;stroke-dasharray:none;stroke-dashoffset:0;stroke-opacity:1" />
  <g
     id="g1086"
     transform="translate(-0.535156,51.035156)">
    <g
       id="g996"
       transform="translate(2.035156,-0.035156)">
      <path
         sodipodi:nodetypes="ccccc"
         inkscape:connector-curvature="0"
         id="path910"
         d="M 41.964844,-9.53516 42,-20.5 30.035156,-20.46484 30,-9.5 Z"
         style="fill:url(#linearGradient932);fill-opacity:1;stroke:#7239b3;stroke-width:1px;stroke-linecap:round;stroke-linejoin:round;stroke-opacity:0.74632353" />
      <path
         transform="translate(56,-52)"
         style="fill:none;fill-opacity:1;stroke:url(#linearGradient948);stroke-width:1px;stroke-linecap:round;stroke-linejoin:round;stroke-opacity:0.74632353"
         d="M -24.964844,32.53516 -25,41.5 h 10 l -4e-6,-9 z"
         id="path926"
         inkscape:connector-curvature="0"
         sodipodi:nodetypes="ccccc" />
    </g>
    <g
       id="g963"
       transform="translate(-3.000004,-7)" />
    <g
       id="g988"
       transform="translate(-7.964844,-24.535156)">
      <path
         style="fill:url(#linearGradient940);fill-opacity:1;stroke:#7bb339;stroke-width:1px;stroke-linecap:round;stroke-linejoin:round;stroke-opacity:0.74509804"
         d="M 52,4 40.035156,3.964844 V -8.832031 L 52,-9 Z"
         id="path918"
         inkscape:connector-curvature="0"
         sodipodi:nodetypes="ccccc" />
      <path
         style="fill:none;fill-opacity:1;stroke:url(#linearGradient952);stroke-width:1px;stroke-linecap:round;stroke-linejoin:round;stroke-opacity:0.74509804"
         d="M 41.070312,-8.070312 41,3 l 9.964844,0.03516 0.07032,-11.070312 z"
         id="path930"
         inkscape:connector-curvature="0"
         sodipodi:nodetypes="ccccc" />
    </g>
  </g>
  <g
     transform="translate(-18.535156,51.035156)"
     id="g967">
    <g
       transform="translate(2.035156,-0.035156)"
       id="g944">
      <path
         style="fill:url(#linearGradient969);fill-opacity:1;stroke:#7239b3;stroke-width:1px;stroke-linecap:round;stroke-linejoin:round;stroke-opacity:0.74632353"
         d="M 41.964844,-9.53516 42,-19.5 30.035156,-19.46484 30,-9.5 Z"
         id="path936"
         inkscape:connector-curvature="0"
         sodipodi:nodetypes="ccccc" />
      <path
         sodipodi:nodetypes="ccccc"
         inkscape:connector-curvature="0"
         id="path940"
         d="M -24.964844,33.53516 -25,41.5 h 10 l -4e-6,-8 z"
         style="fill:none;fill-opacity:1;stroke:url(#linearGradient973);stroke-width:1px;stroke-linecap:round;stroke-linejoin:round;stroke-opacity:0.74632353"
         transform="translate(56,-52)" />
    </g>
    <g
       transform="translate(-7.964848,-19.535156)"
       id="g965">
      <path
         sodipodi:nodetypes="ccccc"
         inkscape:connector-curvature="0"
         id="path957"
         d="M 52.000004,0 40.03516,-0.035156 40.000008,-7 h 12 z"
         style="fill:url(#linearGradient985);fill-opacity:1;stroke:#7bb339;stroke-width:1px;stroke-linecap:round;stroke-linejoin:round;stroke-opacity:0.74509804" />
      <path
         sodipodi:nodetypes="ccccc"
         inkscape:connector-curvature="0"
         id="path963"
         d="m 41.000008,-6 -4e-6,5 h 10 l 4e-6,-5 z"
         style="fill:none;fill-opacity:1;stroke:url(#linearGradient991);stroke-width:1px;stroke-linecap:round;stroke-linejoin:round;stroke-opacity:0.74509804" />
    </g>
  </g>
  <path
     style="fill:none;stroke:#939393;stroke-width:1px;stroke-linecap:round;stroke-linejoin:round;stroke-opacity:1"
     d="M 18.5,19.5 37.5,11"
     id="path124"
     inkscape:connector-curvature="0" />
</svg>
